icons/type-icons/icons/audio-midi.svg

<?xml version="1.0" encoding="UTF-8"?>
<svg width="22" height="22" version="1.1" xmlns="http://www.w3.org/2000/svg">
 <g id="layer1" transform="translate(-326 -534.36)">
  <path id="rect4155" transform="translate(326 534.36)" d="m3 3v16h16v-16h-16zm1 1h2v7h1v7h-3v-14zm5 0h3v7h1v7h-5v-7h1v-7zm6 0h3v14h-4v-7h1v-7z" fill="#3a539b" stroke-linecap="square" stroke-width="2"/>
 </g>
</svg>

<?xml version="1.0" encoding="UTF-8" standalone="no"?>

<!-- Created with Inkscape (http://www.inkscape.org/) -->
<svg width="22" version="1.1" xmlns="http://www.w3.org/2000/svg" height="22" xmlns:inkscape="http://www.inkscape.org/namespaces/inkscape">
 <defs id="defs3871"/>
 <metadata id="metadata3874"/>
 <g inkscape:label="Capa 1" inkscape:groupmode="layer" id="layer1" transform="matrix(1 0 0 1 -326 -534.3622)">
  <path style="fill:#3a539b;stroke-linecap:square;stroke-width:2" id="rect4155" d="M 3 3 L 3 19 L 19 19 L 19 3 L 3 3 z M 4 4 L 6 4 L 6 11 L 7 11 L 7 18 L 4 18 L 4 4 z M 9 4 L 12 4 L 12 11 L 13 11 L 13 18 L 8 18 L 8 11 L 9 11 L 9 4 z M 15 4 L 18 4 L 18 18 L 14 18 L 14 11 L 15 11 L 15 4 z " transform="matrix(1 0 0 1 326 534.3622)"/>
 </g>
</svg>
